X: 101
T:The Perth Waltz
M:3/4
L:1/4
R:40 bar Waltz
K:D
(3A/B/c/|d&gt;A F|F&gt;ED|B,&gt;A,G,|A,2 D3/4E/4|F&gt;ED|d&gt;AF|E3|E2(3A/B/c/|!
d&gt;A F|F&gt;ED|B,&gt;A,G,|A,2 D3/4E/4|F&gt;A d|F<G A 4|! 4G F3 E|D3|D2>d f|a&gt;f d|d&gt;BG|A2 F3/4G/4|A&gt;df|a&gt;fd|e3|e2 F3/4G/4|!
A&gt;df|a&gt;fd|d&gt;BG|A2 d3/4e/4|f<AF|G>ec|d3|d2||!

